icons/briefcase-5-fill.svg

<svg viewBox="0 0 24 24" fill="currentColor" xmlns="http://www.w3.org/2000/svg">
    <path d="M7 5V2C7 1.44772 7.44772 1 8 1H16C16.5523 1 17 1.44772 17 2V5H21C21.5523 5 22 5.44772 22 6V20C22 20.5523 21.5523 21 21 21H3C2.44772 21 2 20.5523 2 20V6C2 5.44772 2.44772 5 3 5H7ZM6 13V7H4V13H6ZM8 7V13H11V11H13V13H16V7H8ZM18 13H20V7H18V13ZM9 3V5H15V3H9Z"/>
</svg>

<svg xmlns="http://www.w3.org/2000/svg" viewBox="0 0 24 24">
    <g>
        <path fill="none" d="M0 0h24v24H0z"/>
        <path d="M7 5V2a1 1 0 0 1 1-1h8a1 1 0 0 1 1 1v3h4a1 1 0 0 1 1 1v14a1 1 0 0 1-1 1H3a1 1 0 0 1-1-1V6a1 1 0 0 1 1-1h4zm-1 8V7H4v6h2zm2-6v6h3v-2h2v2h3V7H8zm10 6h2V7h-2v6zM9 3v2h6V3H9z"/>
    </g>
</svg>
